swiss/communes/0118.svg

<?xml version="1.0" encoding="UTF-8" standalone="no"?>
<!-- Created with Inkscape (http://www.inkscape.org/) -->
<svg
   xmlns:svg="http://www.w3.org/2000/svg"
   xmlns="http://www.w3.org/2000/svg"
   version="1.0"
   width="218.46642"
   height="255.89935"
   id="svg2780">
  <defs
     id="defs2782" />
  <g
     transform="translate(-12.922595,-811.18997)"
     id="layer1">
    <path
       d="M 13.922595,812.18997 L 17.858344,977.51979 C 20.669586,1095.6125 223.64201,1095.6125 226.45326,977.51979 L 230.38901,812.18997 L 13.922595,812.18997 z"
       id="path3282"
       style="fill:#ffef08;fill-opacity:1;fill-rule:evenodd;stroke:#000000;stroke-width:2;stroke-linecap:butt;stroke-miterlimit:4;stroke-dashoffset:0;stroke-opacity:1" />
    <path
       d="M 51.121398,212.59842 L 59.101323,219.85238 C 71.544337,210.41574 93.331757,209.90153 102.99091,219.10426 L 107.47962,213.36869 C 94.759969,200.97784 92.517261,183.3206 92.517261,174.76389 L 92.517261,73.96937 C 92.517261,55.088973 113.16441,40.109885 131.66877,40.054687 C 150.17313,39.999489 166.23054,57.132879 164.08722,76.213724 C 160.76777,105.88968 115.95316,123.517 102.49217,122.0983 L 95.759106,130.32759 C 134.24966,130.49358 134.05934,206.50701 188.02699,217.98208 L 210.22116,197.28415 L 205.60777,192.42139 C 179.5596,206.63239 170.86383,163.06248 137.65372,124.5145 C 135.29678,121.77873 138.26838,120.4986 141.73228,119.60457 C 170.88827,112.07943 199.70613,100.92857 198.75002,68.233799 C 197.93336,40.307729 159.49723,27.35497 141.73228,28.832917 C 119.70622,30.665365 98.104231,36.430582 75.559919,43.795277 C 65.654394,47.031178 56.572763,45.950569 46.882062,39.805314 L 38.652764,49.780221 C 52.417863,54.518918 65.585012,72.543357 65.585012,83.944277 L 65.585012,176.08596 C 65.585012,197.61518 57.597708,206.50985 51.121398,212.59842 z"
       transform="translate(0,804.33069)"
       id="path4942"
       style="fill:#cf3e29;fill-opacity:1;fill-rule:evenodd;stroke:#000000;stroke-width:0.99921262;stroke-linecap:butt;stroke-linejoin:round;stroke-miterlimit:4;stroke-dasharray:none;stroke-opacity:1" />
  </g>
</svg>

<svg xmlns="http://www.w3.org/2000/svg" version="1.0" width="218.466" height="255.899"><path d="m13.923 812.19 3.935 165.33c2.812 118.092 205.784 118.092 208.595 0l3.936-165.33H13.923z" style="fill:#ffef08;fill-opacity:1;fill-rule:evenodd;stroke:#000;stroke-width:2;stroke-linecap:butt;stroke-miterlimit:4;stroke-dashoffset:0;stroke-opacity:1" transform="translate(-12.923 -811.19)"/><path d="m51.121 212.598 7.98 7.254c12.443-9.436 34.23-9.95 43.89-.748l4.489-5.735c-12.72-12.391-14.963-30.048-14.963-38.605V73.969c0-18.88 20.647-33.86 39.152-33.914 18.504-.056 34.562 17.078 32.418 36.159-3.32 29.676-48.134 47.303-61.595 45.884l-6.733 8.23c38.49.166 38.3 76.179 92.268 87.654l22.194-20.698-4.613-4.863c-26.048 14.211-34.744-29.359-67.954-67.906-2.357-2.736.614-4.016 4.078-4.91 29.156-7.526 57.974-18.676 57.018-51.371-.817-27.926-39.253-40.879-57.018-39.401-22.026 1.832-43.628 7.598-66.172 14.962-9.906 3.236-18.987 2.156-28.678-3.99l-8.23 9.975c13.766 4.739 26.933 22.763 26.933 34.164v92.142c0 21.53-7.987 30.424-14.464 36.512z" transform="translate(-12.923 -6.86)" style="fill:#cf3e29;fill-opacity:1;fill-rule:evenodd;stroke:#000;stroke-width:.99921262;stroke-linecap:butt;stroke-linejoin:round;stroke-miterlimit:4;stroke-dasharray:none;stroke-opacity:1"/></svg>
